X:0759
T:My Skiff is on the Shore. Roose.0759.
M:3/8
L:1/8
Q:1/4=80
U:w=!wedge!
U:m=!marcato!
N:A song from the "Ethiopian Serenaders" music can be found.
N:https://picryl.com/topics/ethiopian+serenaders 1844- 48
N:A version can be found in 'Kerr's Collection of Merry Melodies' Vol 3 ~1870
B:J.Roose MS, Manchester, 1850
Z:Village Music Project. Rob Lands 2019
K:G
"Andante"
md>(^ce/)wd/ | (B2d) | wgwBwe | (d2c) | mc>(Bc/)/wA/ | !>!F2wd |
.e.d.^c | m(d2B) | md>(^ce/).d/ | !>!(B2d) | gBe | !>!(d2c) |
!>!(a2g) | wfwewd | (cBA) | G3!fine! ||
(A>B)wA/w^G/ | (Adf) | (f/g/)wewe | (e/f/)wdwd |
!>!A>wBwA/w^G/ | (Adf) | (f/g/)wewe | "AD LIB"(d/^c/e/d/=c/A/) !D.C.!|]

